assets/icons/qvision/create_new_folder.svg

<svg xmlns="http://www.w3.org/2000/svg" height="24" viewBox="0 0 24 24" width="24"><path d="M0 0h24v24H0V0z" fill="none"/><path d="M20 6h-8l-2-2H4c-1.11 0-1.99.89-1.99 2L2 18c0 1.11.89 2 2 2h16c1.11 0 2-.89 2-2V8c0-1.11-.89-2-2-2zm-1 8h-3v3h-2v-3h-3v-2h3V9h2v3h3v2z"/></svg>

<svg width="24" height="24" viewBox="0 0 24 24" fill="none" xmlns="http://www.w3.org/2000/svg">
<g clip-path="url(#clip0_147_2847)">
<path d="M20 6H12L10 4H4C2.89 4 2.01 4.89 2.01 6L2 18C2 19.11 2.89 20 4 20H20C21.11 20 22 19.11 22 18V8C22 6.89 21.11 6 20 6ZM19 14H16V17H14V14H11V12H14V9H16V12H19V14Z" fill="#323232"/>
</g>
<defs>
<clipPath id="clip0_147_2847">
<rect width="24" height="24" fill="white"/>
</clipPath>
</defs>
</svg>
